file/twitch.svg

<svg clip-rule="evenodd" fill-rule="evenodd" stroke-linejoin="round" stroke-miterlimit="1.41421" viewBox="0 0 560 400" xmlns="http://www.w3.org/2000/svg"><path d="m0 0-13.646 13.645h-25.35v17.55h-21.451v-79.94h21.451v40.947h17.545v-40.947h21.451zm-68.241 13.645h-33.146l-13.649-13.645v-35.094l13.649-13.651h33.146v21.445h-25.35v19.502h25.35zm-54.594 0h-17.545v17.55h-21.451v-66.289l13.649-13.651h25.347v21.445h-17.545v19.502h17.545zm-46.795 17.55h-21.445v-9.752h21.445zm0-17.55h-21.445v-62.389h21.445zm-29.244 0h-21.447v-40.945h-7.797v40.945h-21.448v-40.945h-7.796v40.945h-21.451v-62.39h66.293l13.646 13.651zm-87.738 0h-17.546v17.55h-21.447v-66.289l13.648-13.651h25.345v21.445h-17.546v19.502h17.546zm294.405-9.745v-58.491l-29.244-19.499h-19.496v9.752l-13.648-9.752h-17.545v9.752l-9.746-9.752h-31.197l-9.752 9.752-1.952-9.752h-27.292l-11.161 9.752-.625-9.752h-30.935l-1.094 9.752-8.374-9.752h-47.25l-9.75 3.9v-3.9h-25.344l-29.247 17.552-17.546 17.539v77.991h37.047l17.545-17.549h79.939v17.549h66.29v-17.549h17.548v-9.746l9.752 9.746h19.493l17.55 17.549h37.044v-17.549h21.448z" fill="#6441a5" transform="matrix(1.05511 0 0 -1.05511 451.778 181.484)"/></svg>

<?xml version="1.0" encoding="UTF-8" standalone="no"?>
<!DOCTYPE svg PUBLIC "-//W3C//DTD SVG 1.1//EN" "http://www.w3.org/Graphics/SVG/1.1/DTD/svg11.dtd">
<svg width="100%" height="100%" viewBox="0 0 560 400" version="1.1" xmlns="http://www.w3.org/2000/svg" xmlns:xlink="http://www.w3.org/1999/xlink" xml:space="preserve" xmlns:serif="http://www.serif.com/" style="fill-rule:evenodd;clip-rule:evenodd;stroke-linejoin:round;stroke-miterlimit:1.41421;">
    <g id="path3373" transform="matrix(1.05511,1.64346e-32,-1.64346e-32,-1.05511,451.778,181.484)">
        <path d="M0,0L-13.646,13.645L-38.996,13.645L-38.996,31.195L-60.447,31.195L-60.447,-48.745L-38.996,-48.745L-38.996,-7.798L-21.451,-7.798L-21.451,-48.745L0,-48.745L0,0ZM-68.241,13.645L-101.387,13.645L-115.036,0L-115.036,-35.094L-101.387,-48.745L-68.241,-48.745L-68.241,-27.3L-93.591,-27.3L-93.591,-7.798L-68.241,-7.798L-68.241,13.645ZM-122.835,13.645L-140.38,13.645L-140.38,31.195L-161.831,31.195L-161.831,-35.094L-148.182,-48.745L-122.835,-48.745L-122.835,-27.3L-140.38,-27.3L-140.38,-7.798L-122.835,-7.798L-122.835,13.645ZM-169.63,31.195L-191.075,31.195L-191.075,21.443L-169.63,21.443L-169.63,31.195ZM-169.63,13.645L-191.075,13.645L-191.075,-48.744L-169.63,-48.744L-169.63,13.645ZM-198.874,13.645L-220.321,13.645L-220.321,-27.3L-228.118,-27.3L-228.118,13.645L-249.566,13.645L-249.566,-27.3L-257.362,-27.3L-257.362,13.645L-278.813,13.645L-278.813,-48.745L-212.52,-48.745L-198.874,-35.094L-198.874,13.645ZM-286.612,13.645L-304.158,13.645L-304.158,31.195L-325.605,31.195L-325.605,-35.094L-311.957,-48.745L-286.612,-48.745L-286.612,-27.3L-304.158,-27.3L-304.158,-7.798L-286.612,-7.798L-286.612,13.645ZM7.793,3.9L7.793,-54.591L-21.451,-74.09L-40.947,-74.09L-40.947,-64.338L-54.595,-74.09L-72.14,-74.09L-72.14,-64.338L-81.886,-74.09L-113.083,-74.09L-122.835,-64.338L-124.787,-74.09L-152.079,-74.09L-163.24,-64.338L-163.865,-74.09L-194.8,-74.09L-195.894,-64.338L-204.268,-74.09L-251.518,-74.09L-261.268,-70.19L-261.268,-74.09L-286.612,-74.09L-315.859,-56.538L-333.405,-38.999L-333.405,38.992L-296.358,38.992L-278.813,21.443L-198.874,21.443L-198.874,38.992L-132.584,38.992L-132.584,21.443L-115.036,21.443L-115.036,11.697L-105.284,21.443L-85.791,21.443L-68.241,38.992L-31.197,38.992L-31.197,21.443L-9.749,21.443L7.793,3.9Z" style="fill:rgb(100,65,165);"/>
    </g>
</svg>
